X:4758
T:Off to Puck Fair
T:My Wife's a Wanton Wee Thing
O:england
D:"Strings Attached" by Mick Moloney
R:Jig
M:6/8
L:1/8
K:D
f/e/|d2 A (3Bcd A|dcd A2 B|=cdc GEG|=cdc Afe|d2 A (3Bcd A|dcd ABG|
FDF ECE|D3 D::F/G/|ABA FDF|ABA FDF|G=cG E=CE|G=cG E=CE|
ABA FDF|ABA A2 g|fed cfe|d3 d2::e|f2 d A2 F|ABF Ade|fg^g afd|
(3efg f ede|f2 d A2 F|ABA A2 g|fed cfe|d3 d2::F/G/|A (3FED DFA|
BGE E (4efga|bge efd|cde A2 a|d'af dAF|GAB Eag|fed cfe|
d3 d2::F/G/|ABA ABc|d2 A FDF|F2 G EDE|B2 A F2 G|ABA ABc|
dfd AFD|GBA GFE|D3 D2::e|f2 d AFA|f2 d Afa|g2 f e2 d|
(3cde c AFA|f2 d AFA|f2 d AFA|Bgf edc|d3 d2:|]


